!!!OTL: Geistliches Lied ueber Psalm 43
!!!ARE: Europa, Mitteleuropa, Deutschland
!!!SCT: A0638A
!!!YEM: Copyright 1995, estate of Helmut Schaffrath.
**kern
*ICvox
*Ivox
*M4/2
*k[b-]
*F:
{2f
=1
2.f
4g
2a
2b-
=2
1a
1dd
=3
1cc
2dd
4cc
4b-
=4
1a
2r}
{2a
=5
1g
1dd
=6
1cc
2dd
2dd
=7
2.g
4a
2bn
2bn
=8
1cc
2r}
{2cc
=9
2b-
2dd
2cc
2b-
=10
1a
2r
2f
=11
2a
2a
2b-
2b-
=12
2cc
2cc
2a}
{2cc
=13
2b-
2a
2b-
2cc
=14
1a
1g
=15
1.f}
==
!!!AGN: Romanze, Ballade, Lied, religioeses Lied
!! Dresdner Cod. 1560
!!!ONB: ESAC (Essen Associative Code) Database: ALTDEU
!!!AMT: simple quadruple
!!!AIN: vox
!!!EED: Helmut Schaffrath
!!!EEV: 1.0
*-
